src/sources/forus-webshop/resources/_webshop-common/assets/img/icon-menu/icon-menu-products2.svg

<svg width="25" height="25" viewBox="0 0 25 25" fill="none" xmlns="http://www.w3.org/2000/svg">
<path d="M24.2626 11.975L13.0126 0.725C12.5626 0.275 11.9376 0 11.2501 0H2.50012C1.12512 0 0.00012207 1.125 0.00012207 2.5V11.25C0.00012207 11.9375 0.275122 12.5625 0.737622 13.025L11.9876 24.275C12.4376 24.725 13.0626 25 13.7501 25C14.4376 25 15.0626 24.725 15.5126 24.2625L24.2626 15.5125C24.7251 15.0625 25.0001 14.4375 25.0001 13.75C25.0001 13.0625 24.7126 12.425 24.2626 11.975ZM4.37512 6.25C3.33762 6.25 2.50012 5.4125 2.50012 4.375C2.50012 3.3375 3.33762 2.5 4.37512 2.5C5.41262 2.5 6.25012 3.3375 6.25012 4.375C6.25012 5.4125 5.41262 6.25 4.37512 6.25Z" fill="#939698"/>
</svg>

<svg width="25" height="25"  viewBox="0 0 25 25" fill="none" xmlns="http://www.w3.org/2000/svg"><path d="M24.263 11.975L13.013.725A2.484 2.484 0 0011.25 0H2.5A2.507 2.507 0 000 2.5v8.75c0 .688.275 1.313.738 1.775l11.25 11.25c.45.45 1.075.725 1.762.725.688 0 1.313-.275 1.763-.738l8.75-8.75c.462-.45.737-1.075.737-1.762 0-.688-.287-1.325-.737-1.775zM4.375 6.25A1.872 1.872 0 012.5 4.375c0-1.038.838-1.875 1.875-1.875 1.038 0 1.875.837 1.875 1.875A1.872 1.872 0 014.375 6.25z" fill="#939698"/></svg>
